X:2
T:Old Sir Simon the King
C:Trad.
S:Offord MSS          % from Offord manuscript
N:see also Playford   % notes
M:9/8
R:SJ                  % slip jig
Q:C3=120              % tempo
Z:originally in C     % transcription notes
K:G
D|GFG GAG G2D|GFG GAG F2D|EFE EFE EFG|A2G F2E D2:|
D|GAG GAB d2D|GAG GAB c2D|[1 EFE EFE EFG|A2G F2E D2:|\
M:12/8                % change meter for a bar
[2 E2E EFE E2E EFG|\
M:9/8                 % change back again
A2G F2E D2|]

